X:1
T:James Gibb editions
T:Venite amanti - Festa
T:#
%%score [ 1 2 3 ]
L:1/8
Q:1/4=120
M:2/2
K:F
V:1 treble nm="Soprano I" snm="S I"
V:2 treble nm="Soprano II" snm="S II"
V:3 treble nm="Alto" snm="A"
V:1
"^Venite amanti""^Costanzo Festa\n(1490-1545)""^Angelo Poliziano\n(1454-97)" z8 | z4 D4 | %2
w: |Ve-|
 E2 D2 G4 | F4 (G2 B2- | B2 AG) A4 | z2 (G4 FE) | (D3 E F2) G2 |[M:2/2] (B6 AG | A4) G2 c2 | %9
w: ni- te~a- man-|ti~~in- sie\- *|* * * me|a * *|pian\- * * ger|for\- * *|* te, a|
 B2 G2 A4 | G4 z2 G2 | B4 c4 | d4 B2 c2- | c2 A2 B4 | G2 A4 F2 | B4 G2 (c2- | c2 A2 B4 | %17
w: pian- ger for-|te, Sopr'|al mio|cor- po mor\-|* to stes'|in ter- ra,|Et ve- dre\-||
 A3 B c2 d2- | d2 ^c2) d2 G2 | A2 B2 (c3 B | AG) (F2 G2 A2 | D2 F2 E4) | (D3 E FG (A2 | %23
w: |* * te la|mia cru- del *|* * sor\- * *||te, * * * *|
 AB) c2 B2 AG) | F2 G2 B4 | A2 d4 B2 | (c3 B/A/) (G3 A | Bc de f2) (e2- | ed) (d4 ^c2) | %29
w: |* E quant'|è tris- t'el|fin * * del\- *|* * * * * la|* * mia *|
 d2 d2 z2 (D2- | DEFG A2) B2 | A2 (c3 B AG | F3 G A2) B2 | c2 d2 B2 c2 | (d3 c BA G2 | B2 c2 A4) | %36
w: guer- ra, Per|* * * * * tropp'|a- mar, * * *|* * * io|son con- dott' a|mor\- * * * *||
 G8 || d8- | d4 e4 | f4 d4 | B3 c d2 c2- | c2 B2 A4 | G8 | z4 B4 | A4 G4 | F4 B4 | A3 B c2 d2- | %47
w: te.|Tris\-|* to|co- lui|ch'a- mor cru- de\-|* le~~af- fer-|ra,|Quest'|è del|ser- vir|suo so- la mer\-|
 d2 ^c2 d4 | G4 A4 | B4 G2 d2 | d2 c2 _e2 d2 | B4 c2 c2 | B2 c2 d2 B2 | A4 G2 c2- | c2 B2 A4 | %55
w: * ce- de,|Et mor-|tal co- s'a-|mar con trop- pa|fe- de, et|mor- tal co sa~~a-|mar con trop\-|* pa fe-|
 G2 G2 d2 e2 |[Q:1/4=118] f3[Q:1/4=115] e[Q:1/4=114] d2[Q:1/4=111] c2 | %57
w: de, et mor- tal|co- s'a- mar con|
[Q:1/4=109] d2[Q:1/4=107] B2[Q:1/4=104] A4 |[Q:1/4=102] G16 |] %59
w: trop- pa fe-|de.|
V:2
 z8 | z8 | z8 | D4 E2 D2 | G4 F4 | (G2 B4 AG) | A4 z2 (G2- |[M:2/2] G2 FE D3 E | FG A2) B2 (A2- | %9
w: |||Ve- ni- te~a-|man- ti~~in-|sie\- * * *|me a||* * * pian- ger|
 AG) (G4 ^F2) | G8 | z2 D2 E4 | F4 G4 | E2 F4 D2 | E4 C2 F2- | F2 D2 G4 | E2 (A3 G/F/ G2) | %17
w: * * for\- *|te,|Sopr' al|mio cor-|po mor- to|stes' in ter\-|* ra, Et|ve- dre\- * * *|
 (A6 GF | E4) (D3 E | F2) (G3 F ED | C3 D E2) F2- | FE (D4 ^C2) | D4 z4 | A4 G4 | A2 (B4 AG | %25
w: te * *|* la *|* mia * * *|* * * cru\-|* del sor\- *|te,|E quant'|è tris\- * *|
 F3 G A2) (B2- | BA/G/ A2) (B2 AG | F3 G) A2 G2- | G2 F2 E4 | D8 | z2 D2 F2 G2 | (A3 G AB c2- | %32
w: * * * t'el|* * * * fin * *|* * del- la|* mia guer-|ra,|Per tropp' a-|mar, * * * *|
 cB AG F3 G | A2 (B3 A/G/) A2- | A2 D4 _E2 | D2 G3 ^F/E/ F2) | G8 || B8 | B4 B4 | A2 A2 B2 A2 | %40
w: |* io * * son|* con- dott'|a mor\- * * *|te.|Tris-|to co-|lui ch'a- mor cru-|
 G4 F2 (A2- | AG !tenuto!G3 ^F/E/ F2) | G4 B4 | A4 G4 | F4 B4 | A4 G4 | F2 (A4 GF) | E4 D4 | %48
w: de- le~~af- fer\-||ra, Quest'|è del|ser- vir|suo so-|la mer\- * *|ce- de,|
 z4 F4 | G4 B4 | A4 G2 F2- | F2 B4 A2 | B2 (A3 B G2) | F4 (B2 A2- | AG G4 ^F2) | G2 B2 A2 G2 | %56
w: Et|mor- tal|co- s'a- mar|* con trop-|pa fe\- * *|de, fe\- *||de, a- mar con|
 c4 B2 (A2- | AG G4 ^F2) | G16 |] %59
w: trop- pa fe\-||de.|
V:3
 D4 E2 D2 | G4 F4 | (G2 B4 AG) | A4 z2 (G2- | G2 FE) D4 | G4 z2 G2 | (F3 G A2) B2 | %7
w: Ve- ni- te~a-|man- ti~~in-|sie\- * * *|me, in\-|* * * sie-|me a|pian\- * * ger|
[M:2/2] (G6 FE) | D4 z2 F2 | G2 E2 D2 D2 | z2 (G4 =FE) | D2 G2 C4 | B,4 z2 C2- | C2 D4 G,2 | %14
w: for\- * *|te, a|pian- ger for- te,|a * *|pian- ger for-|te, Sopr'|* al mio|
 (C4 F4) | D2 (G3 F ED) | C2 D4 E2 | F2 D2 z2 D2 | (A4 B4) | A2 G2 z2 C2 | F4 E2 D2 | F4 G3 A | %22
w: cor\- *|po mor\- * * *|to stes' in|ter- ra, Et|ve\- *|dre- te, et|ve- dre- te|la mia cru-|
 B2 (A3 G FE | F4) G4 | D2 G4 G2 | D3 E F2 G2 | F2 F2 _E4 | D4 z2 C2- | C2 D2 A,4 | (D3 E FG A2 | %30
w: del sor\- * * *|* te,|E quant' è|tris- t'el fin del-|la mia guer-|ra, Per|* tropp' a-|ma\- * * * *|
 AG FE D2 G2) | F4 z2 ((F2 | FG)) A2 D4 | z2 G4 F2 | D2 G4 C2 | (G2 C2 D4) | G,8 || G8- | G4 G4 | %39
w: |re, a|* * ma- re,|io son|con- dott' a|mor\- * *|te.|Tris\-|* to|
 F4 G2 D2 | _E4 D2 (F2- | F2 G2) D4 | z4 G,4 | D4 G4 | D4 G,4 | D2 F2 _E2 G2 | D2 (F4 _ED) | %47
w: co- lui ch'a-|mor cru- de\-|* * le|af-|fer- ra,|af- fer-|ra, Quest' è del|ser- vir * *|
 A4 D4 | E2 G2 (F2 D2) | G4 z2 G2 | D2 F2 C2 D2- | D2 G2 F4 | G2 F2 D2 G2 | D4 z2 (F2- | %54
w: suo so-|la mer- ce\- *|de, Et|mor- tal co- sa|* a- mar|con trop- pa fe-|de, fe\-|
 F2 G2) D4 | z2 G2 D2 G2 | F2 F2 G2 A2 | F2 G2 D4 | G,16 |] %59
w: * * de,|Et mor- tal|co- s'a- mar con|trop- pa fe-|de.|

